X: 1
T:Polka de Ch\^ateau Chervix
R:Polka
C:Gilles Chabenat
M:C|
O:France
%F:http://trillian.mit.edu/~jc/music/abc/mirror/kirby98.fsnet.co.uk/po/Polka_de_Chateau_Chervix_1.abc 2007-06-29 10:01:31 UT
K:D
DEFG A2Bc|d2cBA4|\
BGEF G2A2-|AFDEF2E2|\
DEFG A2Bc|d2cBA4|BGEFG2A2|F2E2D4:|
|:d2cBA2Bc|d2FBA4|\
BGEF G2A2-|AFDEF2E2|\
DEFG A2Bc|d2cBA4|BGEFG2A2|F2E2D4:|
